X: 17244
T: Herbert Smith's
R: polka
M: 2/4
K: Fmajor
c|Ac Ac|A/A/A/A/ Ac|A>c Ac|B/B/B/B/ Bd|
Bd Bd|ge- ef|g>f e/d/e/d/|c2- cd/c/|
A/A/c Ac|A/A/A/A/ Ac|A/B/c Ac|BB/B/ Bd|
Bd Bd|gg/g/ g>f|g>f eg|f2- f||
K: C Major
G|GA/B/ cd|ef g2|g>d gg|e/f/e/d/ c2|
GA/B/ cd|ef g2|g2 d2|g2 c2|
GA/B/ cd|ef g2|g>d gg|e>d c>A|
GA/B/ cd|ef g2|g2 d2|g2 c||
K: F Major
d/e/|fc dc|d/d/d/d/ dc|d>c dc|B2-BA|
g2 g>f|e/f/e/f/ ed/e/|dc/d/ cB|A2- Ad/e/|
fc dc|d2- dc|d>c dc|B2- Bc|
g/g/g/g/ gd/e/|f/e/f/e/ f>d|cc de|f2- f||

